X: 2
T: Hancock Waltz
C: Gillian Tolfrey (arr. Maurice Condie)
R: waltz
Z: 2020 John Chambers <jc:trillian.mit.edu>
S: https://www.facebook.com/groups/Fiddletuneoftheday/
S: https://www.facebook.com/groups/Fiddletuneoftheday/photos/
M: 3/4
L: 1/8
K: G
DGA |\
"G"B3 d cA | G3 G FD | "C"E2 G3 E | "D"EF AD dc |\
"G"B3 d cA | G3 G FD | "C"E2 c2 "D"(3cBA | "G"G3 :|
|: DGA |\
"G"B3 d gd | "C"e2 dB cA | "A/C#"BG AF GD | "D"EC DB, CA, |\
"G"G,3 D GD | "C"E2 G3 E | EF AD "D"cA | "G"G3 :|


